src/static/login-logo.svg

<?xml version="1.0" encoding="UTF-8"?>
<svg width="80px" height="80px" viewBox="0 0 80 80" version="1.1" xmlns="http://www.w3.org/2000/svg" xmlns:xlink="http://www.w3.org/1999/xlink">
    <title>Logo</title>
    <g id="Main" stroke="none" stroke-width="1" fill="none" fill-rule="evenodd">
        <g id="Login" transform="translate(-680.000000, -387.000000)">
            <g transform="translate(545.000000, 347.000000)" id="Logo">
                <g transform="translate(135.000000, 40.000000)">
                    <circle id="Oval" fill="#E0E0E0" cx="40" cy="40" r="40"></circle>
                    <g transform="translate(16.000000, 20.000000)" fill="#212121" fill-rule="nonzero">
                        <path d="M42.9453125,16.746875 L32.678125,6.465625 L40.5953125,6.4953125 C41.0207045,6.49107943 41.3645169,6.147267 41.36875,5.721875 L41.36875,0.78125 C41.3687808,0.353412346 41.0246818,0.00513405075 40.596875,0 L23.7015625,0 C24.1828648,0.305570952 24.6292732,0.662907292 25.0328125,1.065625 C26.5953125,2.628125 27.4546875,4.834375 27.4546875,7.2796875 L27.4546875,11.09375 L38.025,21.675 C40.5031839,24.2124555 40.479376,28.2712082 37.9715952,30.7794169 C35.4638143,33.2876256 31.4050657,33.3121259 28.8671875,30.834375 L20.9765625,22.940625 L14.53125,16.4234375 L9.0125,16.4234375 C8.14955508,16.4234375 7.45,15.7238824 7.45,14.8609375 L7.45,8.475 C7.45,7.61205508 8.14955508,6.9125 9.0125,6.9125 L9.6375,6.9125 L9.6375,6.61875 C9.6375,6.27357203 9.91732203,5.99375 10.2625,5.99375 L11.921875,5.99375 C12.267053,5.99375 12.546875,6.27357203 12.546875,6.61875 L12.546875,6.9125 L18.0953125,6.9125 C18.9582574,6.9125 19.6578125,7.61205508 19.6578125,8.475 L19.6578125,14.8609375 C19.6578125,15.7238824 18.9582574,16.4234375 18.0953125,16.4234375 L16.446875,16.4234375 L22.421875,22.4 C24.7078125,21.2234375 26.09375,18.90625 26.09375,15.95625 L26.09375,7.290625 C26.09375,2.984375 23.125,0.0109375 18.8140625,0.0109375 L0,0.0109375 L0,39.6671875 L7.3828125,39.6671875 L7.3828125,23.2375 L11.4296875,23.2375 L23.9453125,35.746875 C27.3168346,39.2502631 32.3179004,40.6590665 37.0223639,39.4306886 C41.7268275,38.2023107 45.4007482,34.52839 46.6291261,29.8239264 C47.857504,25.1194629 46.4487006,20.1183971 42.9453125,16.746875 L42.9453125,16.746875 Z" id="Path"></path>
                        <ellipse id="Oval" cx="13.553125" cy="11.6671875" rx="2.7796875" ry="2.8125"></ellipse>
                        <rect id="Rectangle" x="8.6328125" y="8.1984375" width="1" height="1"></rect>
                    </g>
                </g>
            </g>
        </g>
    </g>
</svg>

<?xml version="1.0" encoding="utf-8"?>
<!-- Generator: Adobe Illustrator 24.1.2, SVG Export Plug-In . SVG Version: 6.00 Build 0)  -->
<svg version="1.1" id="Layer_1" xmlns="http://www.w3.org/2000/svg" xmlns:xlink="http://www.w3.org/1999/xlink" x="0px" y="0px"
	 viewBox="0 0 80 80" style="enable-background:new 0 0 80 80;" xml:space="preserve">
<style type="text/css">
	.st0{fill-rule:evenodd;clip-rule:evenodd;fill:#E0E0E0;}
	.st1{fill:#212121;}
</style>
<g id="Main">
	<g id="Login" transform="translate(-680.000000, -387.000000)">
		<g id="Logo" transform="translate(545.000000, 347.000000)">
			<g transform="translate(135.000000, 40.000000)">
				<circle id="Oval" class="st0" cx="40" cy="40" r="40"/>
				<g transform="translate(16.000000, 20.000000)">
					<path id="Path" class="st1" d="M42.9,16.7L32.7,6.5l7.9,0c0.4,0,0.8-0.3,0.8-0.8V0.8C41.4,0.4,41,0,40.6,0H23.7
						c0.5,0.3,0.9,0.7,1.3,1.1c1.6,1.6,2.4,3.8,2.4,6.2v3.8L38,21.7c2.5,2.5,2.5,6.6-0.1,9.1s-6.6,2.5-9.1,0.1L21,22.9l-6.4-6.5H9
						c-0.9,0-1.6-0.7-1.6-1.6V8.5c0-0.9,0.7-1.6,1.6-1.6h0.6V6.6C9.6,6.3,9.9,6,10.3,6h1.7c0.3,0,0.6,0.3,0.6,0.6v0.3h5.5
						c0.9,0,1.6,0.7,1.6,1.6v6.4c0,0.9-0.7,1.6-1.6,1.6h-1.6l6,6c2.3-1.2,3.7-3.5,3.7-6.4V7.3c0-4.3-3-7.3-7.3-7.3H0v39.7h7.4V23.2
						h4l12.5,12.5c3.4,3.5,8.4,4.9,13.1,3.7c4.7-1.2,8.4-4.9,9.6-9.6S46.4,20.1,42.9,16.7L42.9,16.7z"/>
					<ellipse id="Oval_1_" class="st1" cx="13.6" cy="11.7" rx="2.8" ry="2.8"/>
					<rect id="Rectangle" x="8.6" y="8.2" class="st1" width="1" height="1"/>
				</g>
			</g>
		</g>
	</g>
</g>
</svg>
